X: 38788
T: Stumpy Lane, The
R: polka
M: 2/4
K: Dmajor
|:d>e fd|BA FA|D>E FD|BA FE|
d>e fd|BA F>F|FA ec|1 d2 dc:|2 d2 d2||
|:e2 f/e/d|ef ge|f>a fA|df af|e>f eA|
ef g f/g/|1 af gc|ed d2:|2 ed c>B|AG FE||

